X:47
T:Tom Morrison's Reel
M:2/2
L:1/8
K:G
D2|"G"G2 GB "D"AGED|"G"G3 B d2 Bd|"C"efge dcBA|"D"GAFA EADA|
"G"G2 GB "D"AGED|"G"G3 B d2 Bd|"C"efge "G"dcBG|"D"(3ABA) G2 "G"G2:|
ef|"Em"g2 ge a2 af|"C"gage "G"d2 Bd|"C"efge dcBA|"D"GAFA EADA|
"Em"g2 ge "D"a2 af|"C"gage "G"d2 Bd|"C"efge "G"dcBG|"D"(3ABA) G2 "G"G2 e
f|
"Em"g2 ge "D"a2 af|"C"gage "G"d2 Bd|"C"efge dcBA|"D"GAFA EADA|
"G"G2 GB "D"AGED|"G"G3 B d2 Bd|"C"efge "G"dcBG|"D"(3ABA) G2 "G"G2||
